X:1
T: Lady Davidson of Cantray
C:John Lowe
R:Strathspey
Q: 128
K:D
M:4/4
L:1/16
|:F2|D3F Ad3 A3F DF3|Ee3 e3f gfed ce3|d3B AF3 GABc d3B|A3F GFED CE3 EF3|
D3F Ad3 A3F DF3|Ee3 e3f gfed ce3|dcde fefg a3f dA3|BcdB AF3 Ad3 d2f2|
a3f dA3 Bb3 a3f|g3e gfed ce3 e2fg|a3f dA3 b3a fd3|g3e abag fd3 d3f|
a3f dA3 Bb3 a3f|g3e gfed ce3 e2fg|((3d2c2d2) ((3B2c2d2) ((3e2f2d2) ((3c2B2A2) |BcdB AF3 Ad3 d2:|
